X:24
T:Old Saybrook
M:2/4
Q:1/4=100
%%staves (1 2)
L:1/8
K:D
V:1
%%MIDI channel 1
%%MIDI program 72
%%MIDI transpose 8
%%MIDI grace 1/8
%%MIDI ratio 3 1
!ff!(3(A/B/c/|d/)d/d/f/ d (3(A/B/c/|d/)d/d/f/ d (3(A/B/c/|d)f f/e/f/g/|fee (3(A/B/c/|
e/)e/e/g/ e (3(A/B/c/|e/)e/e/g/ e (3(A/B/c/|e)e e/f/g/e/|fdd::z|
La2 Lf2|LdLd Ld2|Ad d/d/d/d/|(3(f/g/f/)e Lez|Lg2 Le2|LcLc Lc>B|AA B/c/d/e/|
(3(f/g/f/).d Ld:|z|:FA/A/ AA|FA/A/ AA|Bd cB|A3 B|AG G>A|
GF FA/A/|[1 BA GF|E2-EA:|[2 LB2 Lc2|Ldzz|]
V:2
%%MIDI channel 1
%%MIDI program 72
%%MIDI transpose 8
%%MIDI grace 1/8
%%MIDI ratio 3 1
z|z4|z4|z4|z4|z4|z4|z4|z3::
z|z4|z4|z4|z4|z4|z4|z4|z3:|z
|:!mf!DF/F/ FF|DF/F/ FF|GB AG|F3 G|FE E>F|
ED DF/F/|[1 GF ED|C2-CF:|[2 !crescendo(!LG2 L[E2G2]!crescendo)!|!ff!LFzz|]

